assets/svg/categories_defi.svg

<svg width="48" height="48" viewBox="0 0 48 48" fill="none" xmlns="http://www.w3.org/2000/svg">
<g clip-path="url(#clip0_30631_48733)">
<path d="M30.6547 4.80078H18.5539C16.2659 4.80078 14.4043 6.60093 14.4043 8.81346V11.1947C14.4043 11.3469 14.5323 11.4707 14.6897 11.4707C14.8471 11.4707 14.9751 11.3469 14.9751 11.1947V8.81346C14.9751 6.90529 16.5806 5.35273 18.5539 5.35273H30.6547C32.628 5.35273 34.2335 6.90529 34.2335 8.81346V39.1889C34.2335 41.0971 32.628 42.6496 30.6547 42.6496H18.5539C16.5806 42.6496 14.9751 41.0971 14.9751 39.1889V13.0682C14.9751 12.916 14.8471 12.7922 14.6897 12.7922C14.5323 12.7922 14.4043 12.916 14.4043 13.0682V39.1881C14.4043 41.4006 16.2659 43.2008 18.5539 43.2008H30.6547C32.9427 43.2008 34.8043 41.4006 34.8043 39.1881V8.81346C34.8035 6.60093 32.9419 4.80078 30.6547 4.80078Z" fill="#9A9A9A"/>
<path d="M26.2105 8.03793C26.7816 8.03793 27.2465 7.58072 27.2465 7.01896C27.2465 6.45721 26.7816 6 26.2105 6H21.7988C21.2277 6 20.7629 6.45721 20.7629 7.01896C20.7629 7.58072 21.2277 8.03793 21.7988 8.03793H26.2105ZM26.6912 7.01896C26.6912 7.27955 26.4755 7.49177 26.2105 7.49177H25.0898C25.4047 7.27175 25.6283 6.93548 25.6981 6.54693H26.2105C26.4755 6.54615 26.6912 6.75837 26.6912 7.01896ZM19.4827 40.2538C19.3296 40.2538 19.2051 40.3763 19.2051 40.5269C19.2051 40.6775 19.3296 40.8 19.4827 40.8H28.5275C28.6805 40.8 28.8051 40.6775 28.8051 40.5269C28.8051 40.3763 28.6805 40.2538 28.5275 40.2538H19.4827Z" fill="#9A9A9A"/>
<path d="M47.4853 21.1838C48.0944 20.3215 47.8892 19.1287 47.027 18.5195C46.1647 17.9104 44.9719 18.1156 44.3627 18.9778C43.7536 19.8401 43.9588 21.0329 44.821 21.642C45.6833 22.2512 46.8761 22.046 47.4853 21.1838Z" fill="#0166FF"/>
<path d="M4.19166 20.6145C4.46508 19.5948 3.86009 18.5465 2.84039 18.2731C1.82068 17.9997 0.772397 18.6047 0.498977 19.6244C0.225557 20.6441 0.83054 21.6924 1.85025 21.9658C2.86995 22.2392 3.91824 21.6342 4.19166 20.6145Z" fill="#0166FF"/>
<path d="M7.0814 41.9134C6.16733 41.3856 4.99733 41.6977 4.46952 42.6127C3.94171 43.5268 4.2539 44.6968 5.1689 45.2246C6.08296 45.7524 7.25296 45.4402 7.78077 44.5252C8.30858 43.6102 7.99546 42.4412 7.0814 41.9134ZM41.1783 41.9134C40.2642 42.4412 39.9511 43.6112 40.4789 44.5252C41.0067 45.4393 42.1767 45.7524 43.0908 45.2246C44.0048 44.6968 44.318 43.5268 43.7901 42.6127C43.2623 41.6977 42.0933 41.3846 41.1783 41.9134ZM6.3689 2.65744C5.45483 3.18525 5.14171 4.35525 5.66952 5.26931C6.19733 6.18338 7.36733 6.4965 8.2814 5.96869C9.19546 5.44088 9.50858 4.27088 8.98077 3.35681C8.45296 2.44181 7.28296 2.12869 6.3689 2.65744ZM43.8117 2.65744C42.8976 2.12963 41.7276 2.44181 41.1998 3.35681C40.672 4.27088 40.9842 5.44088 41.8992 5.96869C42.8133 6.4965 43.9833 6.18431 44.5111 5.26931C45.0389 4.35525 44.7258 3.18525 43.8117 2.65744Z" fill="#0166FF"/>
<path d="M11.2797 14.2801L8.27969 13.0801L7.67969 10.0801" stroke="#9A9A9A" stroke-width="0.625" stroke-linecap="round"/>
<path d="M37.9195 14.2801L40.9195 13.0801L41.5195 10.0801" stroke="#9A9A9A" stroke-width="0.625" stroke-linecap="round"/>
<path d="M5.48217 24.1481L7.63245 25.3714L13.1169 23.971" stroke="#9A9A9A" stroke-width="0.625" stroke-linecap="round"/>
<path d="M44.7971 24.1481L42.6468 25.3714L37.1624 23.971" stroke="#9A9A9A" stroke-width="0.625" stroke-linecap="round"/>
<path d="M38.2793 34.5605L40.6793 36.3605L41.2793 38.7605" stroke="#9A9A9A" stroke-width="0.625" stroke-linecap="round"/>
<path d="M10.3203 34.5605L7.92031 36.3605L7.32031 38.7605" stroke="#9A9A9A" stroke-width="0.625" stroke-linecap="round"/>
<path d="M24.6245 15.25C22.281 15.25 20.3743 17.0082 20.3743 19.1694V20.9851H18.9967C18.3097 20.9851 17.75 21.5012 17.75 22.1348V31.6003C17.75 32.2338 18.3088 32.75 18.9967 32.75H30.2533C30.9403 32.75 31.5 32.2347 31.5 31.6003V22.1348C31.5 21.5012 30.9412 20.9851 30.2533 20.9851H28.8757V19.1694C28.8757 17.0091 26.969 15.25 24.6245 15.25ZM21.0063 19.1702C21.0063 17.3304 22.6294 15.8336 24.6245 15.8336C26.6197 15.8336 28.2428 17.3304 28.2428 19.1702V20.9859H21.0054V19.1702H21.0063ZM30.8681 22.1356V31.6011C30.8681 31.9133 30.5927 32.1681 30.2533 32.1681H18.9967C18.6582 32.1681 18.3819 31.9142 18.3819 31.6011V22.1356C18.3819 21.8234 18.6573 21.5687 18.9967 21.5687H30.2533C30.5918 21.5687 30.8681 21.8234 30.8681 22.1356Z" fill="#9A9A9A"/>
</g>
<defs>
<clipPath id="clip0_30631_48733">
<rect width="48" height="48" fill="white"/>
</clipPath>
</defs>
</svg>

<svg xmlns="http://www.w3.org/2000/svg" width="48" height="48" fill="none"><g clip-path="url(#a)"><path fill="#9A9A9A" d="M30.655 4.8H18.554c-2.288 0-4.15 1.8-4.15 4.013v2.382c0 .152.128.276.286.276a.28.28 0 0 0 .285-.276V8.813c0-1.908 1.606-3.46 3.579-3.46h12.1c1.974 0 3.58 1.552 3.58 3.46V39.19c0 1.908-1.606 3.46-3.58 3.46h-12.1c-1.973 0-3.579-1.552-3.579-3.46v-26.12a.28.28 0 0 0-.285-.277.28.28 0 0 0-.286.276v26.12c0 2.213 1.862 4.013 4.15 4.013h12.1c2.289 0 4.15-1.8 4.15-4.013V8.813c0-2.212-1.862-4.012-4.15-4.012"/><path fill="#9A9A9A" d="M26.21 8.038c.572 0 1.037-.457 1.037-1.019S26.782 6 26.21 6H21.8c-.571 0-1.036.457-1.036 1.019s.465 1.019 1.036 1.019zm.481-1.019c0 .26-.215.473-.48.473H25.09c.315-.22.538-.557.608-.945h.512c.265 0 .481.211.481.472m-7.208 33.235a.276.276 0 0 0-.278.273c0 .15.125.273.278.273h9.045a.276.276 0 0 0 .277-.273.276.276 0 0 0-.277-.273z"/><path fill="#0166FF" d="M47.485 21.184a1.912 1.912 0 1 0-3.123-2.206 1.912 1.912 0 0 0 3.123 2.206M4.192 20.615a1.912 1.912 0 1 0-3.693-.99 1.912 1.912 0 0 0 3.693.99M7.081 41.913a1.912 1.912 0 1 0-1.912 3.31 1.912 1.912 0 0 0 1.912-3.31m34.097 0a1.912 1.912 0 1 0 1.914 3.312 1.912 1.912 0 0 0-1.914-3.312M6.368 2.657A1.912 1.912 0 1 0 8.284 5.97a1.912 1.912 0 0 0-1.914-3.312m37.444 0a1.912 1.912 0 1 0-1.913 3.311 1.912 1.912 0 0 0 1.913-3.31"/><path stroke="#9A9A9A" stroke-linecap="round" stroke-width=".625" d="m11.28 14.28-3-1.2-.6-3M37.92 14.28l3-1.2.6-3M5.482 24.148l2.15 1.223 5.485-1.4M44.797 24.148l-2.15 1.223-5.485-1.4M38.28 34.56l2.4 1.8.6 2.4M10.32 34.56l-2.4 1.8-.6 2.4"/><path fill="#9A9A9A" d="M24.625 15.25c-2.344 0-4.25 1.758-4.25 3.92v1.815h-1.378c-.687 0-1.247.516-1.247 1.15V31.6c0 .634.559 1.15 1.247 1.15h11.256c.687 0 1.247-.515 1.247-1.15v-9.465c0-.634-.559-1.15-1.247-1.15h-1.377V19.17c0-2.16-1.907-3.919-4.251-3.919m-3.619 3.92c0-1.84 1.623-3.336 3.619-3.336 1.995 0 3.618 1.496 3.618 3.336v1.816h-7.238zm9.862 2.966V31.6c0 .312-.275.567-.615.567H18.997c-.339 0-.615-.254-.615-.567v-9.465c0-.313.275-.567.615-.567h11.256c.339 0 .615.254.615.567"/></g><defs><clipPath id="a"><path fill="#fff" d="M0 0h48v48H0z"/></clipPath></defs></svg>
